!!!SOCIAL_FUNCTION:	songs of personal narratives concerning war
!!!PDT:	1918

Specific Region: Dakotas, Minnesota, Montana, Nebraska
!!!REG: Dakotas and Montana
!!!LING_GROUP: Siouan
!!!LANG: Tone
!!!OTL@ENG: May I Be There
!!!ONM: No. 156
**kern
*Imale
*clefF4
*k[b-e-]
*M2/4
*MM63
8.f
16f
4e-
=2
4f
8.d
16f
=3
8.f
16f
4d
=4
16d
8.c
8.B-
16d
=5
4c
8f
8d
=6
16d
8.c
8.B-
16d
=7
4c
16d
16c
8B-
=8
4B-
8.F
16c
=9
4B-
16c
16c
8B-
=10
16c
8.B-
8.F
16F
=11
2F
=12||
*M3/4
4F
2F
=13
*MM54
8d
8f
8e-
([8f
8f]
8d)
=14||
*M2/4
32e-
[16.e-
8e-]
8f
8d
=15
(12d
12c)
12c
16B-
8.B-
=16
16c
8.c
16f
8.d
=17
(12d
12c)
12c
(8.B-
16d)
=18
4c
16c
16c
8B-
=19
4B-
8.F
16c
=20
4B-
16c
16c
8B-
=21
12c
12B-
12B-
8.F
16F
=22||
*M3/4
2.F
=23
4F
2r
==
*-
!!!CNT: Native American -- Sioux
!!!MRD: 1911/07//-1914///
!!!OCL: Frances Densmore
!!!YOR1: Teton Sioux Music, Bulletin 61,
!!!YOR2: Bureau of American Ethnology, Smithsonian Institution
!!!PPR: Government Printing Office
!!!PPP: Washington, D.C.
!!!PDT: 1918///
!!!ENC: Craig Stuart Sapp
!!!END: 2002/03/25/
!!!EEV: 2002/03/31/
!!!AGN: War Song/Song of Personal Narrative Concerning War
!!!MPN@@SIO: Wi'yaka-wangzhi'la
!!!MPN@ENG: One Feather
!!!TXO: Teton Sioux
!!!MLC: Standing Rock Reservation, South Dakota, United States of America
!!!ARL: 45.9/-100.7#
!!!catalog: Catalogue No. 623
!!!PPG: 382
!!!EFL: 161/245
!!!VTS: 163334820
